T: Last Night's Fun
M: 9/8
L: 1/8
K: Ddor
|| DDD | DDC | DDD | GGEm | DDD | DDC | DDD | GGEm || || GGD | GGC | GGD | GGEm | GGD | GGC | GEmG | GEmEm ||
